assets/badgeWifi.svg

<svg width="50" height="51" viewBox="0 0 50 51" fill="none" xmlns="http://www.w3.org/2000/svg">
<rect y="0.723633" width="50" height="50" rx="25" fill="#E8F2EE"/>
<path d="M11.8052 19.8868C15.5374 16.8632 20.1968 15.2165 25.0002 15.2237C29.9993 15.2237 34.5902 16.9702 38.1952 19.8868L36.7298 21.7022C33.4121 19.0142 29.2701 17.5505 25.0002 17.557C20.5563 17.557 16.4765 19.1087 13.2705 21.7022L11.8052 19.8868ZM15.4697 24.4252C18.1654 22.2412 21.5308 21.0518 25.0002 21.057C28.4694 21.0518 31.8346 22.2407 34.5307 24.424L33.0642 26.2393C30.7832 24.3917 27.9356 23.3857 25.0002 23.3903C21.9458 23.3903 19.14 24.4578 16.9362 26.2393L15.4697 24.424V24.4252ZM19.1353 28.9635C20.7942 27.6194 22.8651 26.8873 25.0002 26.8903C27.2215 26.8903 29.262 27.6662 30.865 28.9623L29.3985 30.7777C28.1544 29.7699 26.6012 29.2212 25.0002 29.2237C23.3342 29.2237 21.8035 29.8058 20.6018 30.7777L19.1353 28.9623V28.9635ZM22.801 33.5018C23.4229 32.9975 24.1995 32.7227 25.0002 32.7237C25.8332 32.7237 26.5985 33.0153 27.1993 33.5007L25.0002 36.2237L22.801 33.5007V33.5018Z" fill="#5BB5A2"/>
</svg>

<svg xmlns="http://www.w3.org/2000/svg" width="50" height="51" fill="none"><rect width="50" height="50" y=".724" fill="#E8F2EE" rx="25"/><path fill="#5BB5A2" d="M11.805 19.887A20.912 20.912 0 0 1 25 15.224c5 0 9.59 1.746 13.195 4.663l-1.465 1.815A18.588 18.588 0 0 0 25 17.557a18.583 18.583 0 0 0-11.73 4.145l-1.465-1.815Zm3.665 4.538A15.104 15.104 0 0 1 25 21.057a15.108 15.108 0 0 1 9.53 3.367l-1.466 1.815A12.78 12.78 0 0 0 25 23.39c-3.054 0-5.86 1.068-8.064 2.85l-1.466-1.816v.001Zm3.665 4.538A9.295 9.295 0 0 1 25 26.89c2.221 0 4.262.776 5.865 2.072l-1.466 1.816A6.97 6.97 0 0 0 25 29.224a6.971 6.971 0 0 0-4.398 1.554l-1.467-1.816v.002Zm3.666 4.539a3.485 3.485 0 0 1 2.2-.778c.832 0 1.598.291 2.198.777L25 36.224 22.801 33.5Z"/></svg>
